X: 10374
T: Donal O'Connor's
R: slide
M: 12/8
K: Dmajor
|:e|f3 f2 e d2 B A3|Bcd e2 f g3 f2 e|
f3 f2 e d2 B A3|Bcd efe d3 d2:|
B|:A2 f fef a2 f fef|A2 c e2 f g3 f2 e|
[1 A2 f fef a2 f d2 f|efe ABc d3 dcB:|
[2 f3 f2 e d2 B A3|Bcd efe d3 d2||

